X: 10072
T: Allegro Assai
C: Gaetano Brandi
B: "Man of Feeling", Gaetano Brandi, ed. v.1 p.7 #2
F: http://archive.org/details/manoffeelingorge00rugg
Z: 2012 John Chambers <jc:trillian.mit.edu>
M: 2/4
L: 1/16
K: G
   gdBd | BGdB (gfed) | {f/}e2d2 gdBd | BGdB (edcB) | {d/}c2B2 gdbg | d'3b c'bag | d4 :|
|: fdfa | gd'bg fdfa  | gd'bg (eg)(dg) | (cg)(Bg) (ABcd) | (c2B2) (eg)(dg) | (cg)(Bg) {B/}AGAB | G4 :|
%
%%center -

%%sep 2 1 500
%%sep 1 1 500

